X:223
T: IN DES GARTENS DUNKLER LAUBE
N: E0112D
O: Europa, Mitteleuropa, Deutschland; Frankreich, Elsass
R: erzaehlendes Volks - Lied, Sage, Liebe, Leid, Tod
M: 3/4
L: 1/16
K: Bb
F3G | F2B2B4D3D | D2F2F4
E2D2 | E2G2B4A3c | B4z4
F2F2 | e4c4f3e | d4B4
F2F2 | G2c2c4A3c | B4z4

